32x32/apps/org.gna.Warmux.svg

<svg xmlns="http://www.w3.org/2000/svg" width="32" height="32" version="1">
 <rect style="fill:#ffd38d" width="2" height="6" x="20.52" y="-9.66" rx=".262" ry=".267" transform="rotate(30)"/>
 <path fill="#4f4f4f" d="m19.691 3.5423c-0.32-0.1847-0.726-0.0758-0.911 0.244l-0.90625 1.5697a12 12 0 0 0 -13.266 5.644 12 12 0 0 0 4.392 16.392 12 12 0 0 0 16.392 -4.392 12 12 0 0 0 -1.746 -14.308l0.90755-1.5719c0.18467-0.31985 0.07583-0.72602-0.24402-0.91068l-4.6188-2.6667z"/>
 <path opacity=".2" d="m24.436 7.3212-0.79 1.3691a12 12 0 0 1 0.348 0.3965l0.559-0.9688c0.155-0.2686 0.093-0.5888-0.117-0.7968zm-21.413 10.133a12 12 0 0 0 5.9766 10.938 12 12 0 0 0 16.393 -4.393 12 12 0 0 0 1.58 -6.445 12 12 0 0 1 -1.58 5.445 12 12 0 0 1 -16.393 4.393 12 12 0 0 1 -5.9766 -9.938z"/>
 <path fill="#fff" opacity=".1" d="m19.439 3.457c-0.257-0.0323-0.521 0.0902-0.66 0.3301l-0.906 1.5684a12 12 0 0 0 -13.266 5.6445 12 12 0 0 0 -1.5836 6.455 12 12 0 0 1 1.584 -5.455 12 12 0 0 1 13.266 -5.6445l0.906-1.5684c0.185-0.3198 0.593-0.4288 0.912-0.2441l4.618 2.666c0.051 0.0295 0.086 0.0736 0.127 0.1133l0.117-0.2032c0.184-0.3198 0.075-0.7254-0.244-0.9101l-4.618-2.666c-0.08-0.0462-0.166-0.0752-0.252-0.086zm4.555 5.6309l-0.348 0.6035a12 12 0 0 1 3.327 7.8636 12 12 0 0 0 -2.979 -8.4671z"/>
 <path style="opacity:0.2" d="m 13.486328,8.9997724 c -0.176769,-0.00124 -0.337716,0.00507 -0.478516,0.017578 -1.32498,0.1178627 -3.0527076,1.2979055 -4.5175776,3.0878905 -1.4160004,1.730283 -1.824752,3.112844 -1.2207032,4.130859 0.6802544,1.146452 1.4680168,1.798411 2.5664063,2.126953 0.9396675,0.281071 1.2204865,0.451576 2.0253905,1.230469 1.299239,1.257268 1.746856,1.39871 4.478516,1.40625 1.153855,0.0035 2.543186,-0.04385 3.08789,-0.103516 0.805362,-0.08817 1.145355,-0.191088 1.810547,-0.554687 1.764545,-0.964517 2.049006,-1.620117 1.529297,-3.509766 -0.162096,-0.589339 -0.426874,-1.834601 -0.58789,-2.767578 -0.161003,-0.932978 -0.363418,-1.841052 -0.451172,-2.017578 -0.39057,-0.78563 -1.647261,-1.541814 -3.8125,-2.2949215 C 16.729384,9.3389888 14.72374,9.0085626 13.486328,8.9997724 Z M 12.71875,12.999772 c 1.049656,0.04414 1.286742,0.964496 1.28125,1.751953 0,1.111949 -0.160102,1.541681 -0.734375,1.966797 -0.428927,0.317499 -1.477361,0.382906 -1.791016,0.111328 C 11.146873,16.546072 11,16.014725 11,15.113053 c 0,-1.357897 0.613408,-2.112886 1.71875,-2.113281 z m 5.326172,0 h 0.002 c 0.259011,-0.0045 0.535825,0.07786 0.867187,0.244141 0.342849,0.172061 0.727504,0.450308 0.855469,0.617187 0.305198,0.398006 0.306767,1.293607 0.0059,2.291016 -0.454959,1.505278 -1.360324,2.112205 -2.605469,1.742187 -0.479142,-0.142388 -1.044649,-0.817554 -1.146484,-1.371093 -0.164555,-0.894423 0.568258,-2.788481 1.257812,-3.251954 0.26278,-0.176618 0.504843,-0.266553 0.763672,-0.271484 z m -8.7695314,6 c -0.4204871,-0.0025 -0.8675418,0.137259 -1.296875,0.421875 -0.526198,0.34884 -1.5534143,1.561495 -1.8261718,2.158203 -0.51615,1.129201 0.3406907,2.874385 1.6269531,3.310547 0.4524498,0.153429 0.4595607,0.152519 0.8691406,-0.04492 0.4869325,-0.234727 0.7259253,-0.55037 1.5703125,-2.078125 0.570407,-1.032034 0.722476,-1.418121 0.763672,-1.943359 0.04664,-0.594244 0.01597,-0.699195 -0.314453,-1.125 -0.356898,-0.459857 -0.8519497,-0.696233 -1.3925784,-0.699219 z m 4.1601564,3 c -0.970609,0 -1.660234,0.609842 -2.109375,1.861328 -0.389273,1.084712 -0.433375,2.005621 -0.111328,2.328125 0.560952,0.561727 2.63953,1.015891 3.273437,0.714844 0.26463,-0.125672 0.346942,-0.312455 0.472657,-1.074219 0.120345,-0.729186 -0.04708,-2.35778 -0.306641,-2.986328 -0.231485,-0.560491 -0.641184,-0.84375 -1.21875,-0.84375 z m 4.554687,0 c -0.08708,-6.69e-4 -0.188044,0.0047 -0.308593,0.01367 -0.719202,0.05493 -1.108005,0.299452 -1.455079,0.916016 -0.231384,0.41103 -0.252762,0.561625 -0.205078,1.394531 0.05953,1.038964 0.219457,1.571201 0.5,1.648437 0.30134,0.08294 1.655535,-0.03883 2.25,-0.203125 C 19.502529,25.567291 20,25.169966 20,24.790788 c 0,-0.404826 -1.052373,-2.326749 -1.423828,-2.59961 -0.18625,-0.136824 -0.32481,-0.189204 -0.585938,-0.191406 z"/>
 <path style="fill:#cbcbcb" d="M 13.486328 8 C 13.309559 7.99876 13.148612 8.0050731 13.007812 8.0175781 C 11.682832 8.1354408 9.9551044 9.3154832 8.4902344 11.105469 C 7.074234 12.835752 6.6654824 14.218313 7.2695312 15.236328 C 7.9497856 16.38278 8.737548 17.034739 9.8359375 17.363281 C 10.775605 17.644352 11.056424 17.814857 11.861328 18.59375 C 13.160567 19.851018 13.608184 19.99246 16.339844 20 C 17.493699 20.0035 18.88303 19.956146 19.427734 19.896484 C 20.233096 19.808314 20.573089 19.705396 21.238281 19.341797 C 23.002826 18.37728 23.287287 17.72168 22.767578 15.832031 C 22.605482 15.242692 22.340704 13.99743 22.179688 13.064453 C 22.018685 12.131475 21.81627 11.223401 21.728516 11.046875 C 21.337946 10.261245 20.081255 9.5050601 17.916016 8.7519531 C 16.729384 8.3392164 14.72374 8.0087902 13.486328 8 z M 12.71875 12 C 13.768406 12.04414 14.005492 12.964496 14 13.751953 C 14 14.863902 13.839898 15.293634 13.265625 15.71875 C 12.836698 16.036249 11.788264 16.101656 11.474609 15.830078 C 11.146873 15.5463 11 15.014953 11 14.113281 C 11 12.755384 11.613408 12.000395 12.71875 12 z M 18.044922 12 L 18.046875 12 C 18.305886 11.99552 18.5827 12.077865 18.914062 12.244141 C 19.256911 12.416202 19.641566 12.694449 19.769531 12.861328 C 20.074729 13.259334 20.076298 14.154935 19.775391 15.152344 C 19.320432 16.657622 18.415067 17.264549 17.169922 16.894531 C 16.69078 16.752143 16.125273 16.076977 16.023438 15.523438 C 15.858883 14.629015 16.591696 12.734957 17.28125 12.271484 C 17.54403 12.094866 17.786093 12.004931 18.044922 12 z M 9.2753906 18 C 8.8549035 17.9975 8.4078488 18.137259 7.9785156 18.421875 C 7.4523176 18.770715 6.4251013 19.98337 6.1523438 20.580078 C 5.6361938 21.709279 6.4930345 23.454463 7.7792969 23.890625 C 8.2317467 24.044054 8.2388576 24.043144 8.6484375 23.845703 C 9.13537 23.610976 9.3743628 23.295333 10.21875 21.767578 C 10.789157 20.735544 10.941226 20.349457 10.982422 19.824219 C 11.029062 19.229975 10.998395 19.125024 10.667969 18.699219 C 10.311071 18.239362 9.8160193 18.002986 9.2753906 18 z M 13.435547 21 C 12.464938 21 11.775313 21.609842 11.326172 22.861328 C 10.936899 23.94604 10.892797 24.866949 11.214844 25.189453 C 11.775796 25.75118 13.854374 26.205344 14.488281 25.904297 C 14.752911 25.778625 14.835223 25.591842 14.960938 24.830078 C 15.081283 24.100892 14.913857 22.472298 14.654297 21.84375 C 14.422812 21.283259 14.013113 21 13.435547 21 z M 17.990234 21 C 17.903154 20.999331 17.80219 21.004732 17.681641 21.013672 C 16.962439 21.068602 16.573636 21.313124 16.226562 21.929688 C 15.995178 22.340718 15.9738 22.491313 16.021484 23.324219 C 16.081014 24.363183 16.240941 24.89542 16.521484 24.972656 C 16.822824 25.055596 18.177019 24.933824 18.771484 24.769531 C 19.502529 24.567519 20 24.170194 20 23.791016 C 20 23.38619 18.947627 21.464267 18.576172 21.191406 C 18.389922 21.054582 18.251362 21.002202 17.990234 21 z"/>
 <path style="fill:#f4f4f7;opacity:0.2" d="M 13.486328 8 C 13.309559 7.99876 13.148612 8.0050731 13.007812 8.0175781 C 11.682832 8.1354408 9.9551044 9.3154829 8.4902344 11.105469 C 7.3031194 12.556065 6.8324197 13.759043 7.0644531 14.710938 C 7.2174424 13.955212 7.6853718 13.088971 8.4902344 12.105469 C 9.9551044 10.315484 11.682832 9.1354408 13.007812 9.0175781 C 13.148612 9.0050701 13.309559 8.99876 13.486328 9 C 14.72374 9.0087902 16.729384 9.3392165 17.916016 9.7519531 C 20.081255 10.505061 21.337946 11.261245 21.728516 12.046875 C 21.81627 12.223401 22.018684 13.131475 22.179688 14.064453 C 22.340704 14.99743 22.605482 16.242692 22.767578 16.832031 C 22.850154 17.132276 22.904098 17.392594 22.943359 17.636719 C 23.047659 17.170262 22.980856 16.607506 22.767578 15.832031 C 22.605482 15.242692 22.340704 13.99743 22.179688 13.064453 C 22.018685 12.131475 21.81627 11.223401 21.728516 11.046875 C 21.337946 10.261245 20.081255 9.5050601 17.916016 8.7519531 C 16.729384 8.3392164 14.72374 8.0087902 13.486328 8 z M 19.953125 14.345703 C 19.91642 14.602222 19.860368 14.870672 19.775391 15.152344 C 19.320432 16.657622 18.415067 17.264549 17.169922 16.894531 C 16.725771 16.762542 16.222815 16.174785 16.068359 15.648438 C 16.003947 15.979378 15.979974 16.287194 16.023438 16.523438 C 16.125273 17.076977 16.69078 17.752143 17.169922 17.894531 C 18.415067 18.264549 19.320432 17.657622 19.775391 16.152344 C 19.987028 15.45074 20.041198 14.808798 19.953125 14.345703 z M 13.970703 14.398438 C 13.904782 15.048086 13.710419 15.389483 13.265625 15.71875 C 12.836698 16.036249 11.788264 16.101656 11.474609 15.830078 C 11.22434 15.613377 11.079862 15.249548 11.025391 14.689453 C 11.01064 14.824309 11 14.963563 11 15.113281 C 11 16.014953 11.146873 16.5463 11.474609 16.830078 C 11.788264 17.101656 12.836698 17.036249 13.265625 16.71875 C 13.839898 16.293634 14 15.863902 14 14.751953 C 14.000809 14.635904 13.982255 14.517029 13.970703 14.398438 z M 9.0175781 18.019531 C 8.6745709 18.063339 8.3214825 18.194513 7.9785156 18.421875 C 7.4523176 18.770715 6.4251013 19.98337 6.1523438 20.580078 C 5.9788576 20.95962 5.9713573 21.40789 6.0722656 21.853516 C 6.0960601 21.761273 6.1130551 21.666031 6.1523438 21.580078 C 6.4251013 20.98337 7.4523176 19.770715 7.9785156 19.421875 C 8.4078488 19.137259 8.8549035 18.9975 9.2753906 19 C 9.8160193 19.002986 10.311071 19.239362 10.667969 19.699219 C 10.809282 19.881324 10.888439 20.004706 10.9375 20.132812 C 10.957483 20.031359 10.974081 19.930564 10.982422 19.824219 C 11.029062 19.229975 10.998395 19.125024 10.667969 18.699219 C 10.65627 18.684146 10.640898 18.674749 10.628906 18.660156 C 10.408619 18.556215 10.169197 18.462965 9.8359375 18.363281 C 9.5412115 18.275125 9.2714988 18.157564 9.0175781 18.019531 z M 13.435547 21 C 12.464938 21 11.775313 21.609842 11.326172 22.861328 C 11.019844 23.714913 10.931112 24.461457 11.0625 24.900391 C 11.113499 24.581035 11.190779 24.2386 11.326172 23.861328 C 11.775313 22.609842 12.464938 22 13.435547 22 C 14.013113 22 14.422812 22.283259 14.654297 22.84375 C 14.811652 23.224797 14.92466 23.965287 14.970703 24.658203 C 15.050413 23.876036 14.897588 22.432902 14.654297 21.84375 C 14.422812 21.283259 14.013113 21 13.435547 21 z M 17.990234 21 C 17.903154 20.999331 17.80219 21.004732 17.681641 21.013672 C 16.962439 21.068602 16.573636 21.313123 16.226562 21.929688 C 15.995178 22.340718 15.9738 22.491313 16.021484 23.324219 C 16.02369 23.362707 16.028768 23.388682 16.03125 23.425781 C 16.062565 23.255437 16.120247 23.118547 16.226562 22.929688 C 16.573637 22.313124 16.962439 22.068602 17.681641 22.013672 C 17.80219 22.004702 17.903154 21.999331 17.990234 22 C 18.251362 22.002202 18.389922 22.054582 18.576172 22.191406 C 18.84804 22.391114 19.478967 23.468253 19.800781 24.193359 C 19.916546 24.062567 20 23.926983 20 23.791016 C 20 23.38619 18.947627 21.464267 18.576172 21.191406 C 18.389922 21.054582 18.251362 21.002202 17.990234 21 z"/>
</svg>

<svg xmlns="http://www.w3.org/2000/svg" width="32" height="32" version="1"><rect style="fill:#ffd38d" width="2" height="6" x="20.52" y="-9.66" rx=".262" ry=".267" transform="rotate(30)"/><path fill="#4f4f4f" d="M19.691 3.542a.666.666 0 0 0-.911.244l-.906 1.57A12 12 0 0 0 4.608 11 12 12 0 0 0 9 27.392 12 12 0 0 0 25.392 23a12 12 0 0 0-1.746-14.308l.907-1.572a.665.665 0 0 0-.244-.91L19.69 3.542z"/><path opacity=".2" d="m24.436 7.321-.79 1.37a12 12 0 0 1 .348.396l.559-.969a.654.654 0 0 0-.117-.797zM3.023 17.454A12 12 0 0 0 9 28.392 12 12 0 0 0 25.393 24a12 12 0 0 0 1.58-6.445A12 12 0 0 1 25.393 23 12 12 0 0 1 9 27.392a12 12 0 0 1-5.977-9.938z"/><path fill="#fff" opacity=".1" d="M19.439 3.457a.668.668 0 0 0-.66.33l-.906 1.568A12 12 0 0 0 4.607 11a12 12 0 0 0-1.584 6.455A12 12 0 0 1 4.607 12a12 12 0 0 1 13.266-5.645l.906-1.568a.667.667 0 0 1 .912-.244l4.618 2.666c.051.03.086.074.127.113l.117-.203a.666.666 0 0 0-.244-.91l-4.618-2.666a.673.673 0 0 0-.252-.086zm4.555 5.63-.348.604a12 12 0 0 1 3.327 7.864 12 12 0 0 0-2.979-8.467z"/><path style="opacity:.2" d="M13.486 9a5.062 5.062 0 0 0-.478.017c-1.325.118-3.053 1.298-4.518 3.088-1.416 1.73-1.825 3.113-1.22 4.131.68 1.147 1.468 1.799 2.566 2.127.94.281 1.22.452 2.025 1.23 1.3 1.258 1.747 1.4 4.479 1.407 1.154.003 2.543-.044 3.088-.104.805-.088 1.145-.19 1.81-.554 1.765-.965 2.05-1.62 1.53-3.51-.163-.59-.427-1.835-.588-2.768-.161-.933-.364-1.84-.451-2.017-.391-.786-1.648-1.542-3.813-2.295-1.187-.413-3.192-.743-4.43-.752zm-.767 4c1.05.044 1.286.964 1.281 1.752 0 1.112-.16 1.541-.734 1.967-.43.317-1.478.382-1.791.11-.328-.283-.475-.814-.475-1.716 0-1.358.613-2.113 1.719-2.113zm5.326 0h.002c.259-.005.536.078.867.244.343.172.728.45.856.617.305.398.306 1.294.005 2.291-.454 1.505-1.36 2.112-2.605 1.742-.48-.142-1.045-.817-1.146-1.37-.165-.895.568-2.79 1.257-3.253.263-.176.505-.266.764-.271zm-8.77 6c-.42-.003-.867.137-1.296.422-.527.348-1.554 1.561-1.827 2.158-.516 1.13.341 2.874 1.627 3.31.453.154.46.153.87-.045.486-.234.725-.55 1.57-2.078.57-1.032.722-1.418.763-1.943.047-.594.016-.7-.314-1.125a1.74 1.74 0 0 0-1.393-.7zm4.16 3c-.97 0-1.66.61-2.109 1.861-.39 1.085-.433 2.006-.111 2.328.56.562 2.64 1.016 3.273.715.265-.126.347-.312.473-1.074.12-.73-.047-2.358-.307-2.986-.231-.561-.64-.844-1.218-.844zm4.555 0c-.087 0-.188.004-.308.013-.72.055-1.108.3-1.455.916-.232.411-.253.562-.206 1.395.06 1.039.22 1.571.5 1.648.302.083 1.656-.038 2.25-.203.732-.202 1.229-.599 1.229-.978 0-.405-1.052-2.327-1.424-2.6A.865.865 0 0 0 17.99 22z"/><path style="fill:#cbcbcb" d="M13.486 8a5.063 5.063 0 0 0-.478.018c-1.325.117-3.053 1.297-4.518 3.087-1.416 1.73-1.825 3.113-1.22 4.131.68 1.147 1.468 1.799 2.566 2.127.94.281 1.22.452 2.025 1.23 1.3 1.258 1.747 1.4 4.479 1.407 1.154.003 2.543-.044 3.088-.104.805-.088 1.145-.19 1.81-.554 1.765-.965 2.05-1.62 1.53-3.51-.163-.59-.427-1.835-.588-2.768-.161-.933-.364-1.84-.451-2.017-.391-.786-1.648-1.542-3.813-2.295-1.187-.413-3.192-.743-4.43-.752zm-.767 4c1.05.044 1.286.964 1.281 1.752 0 1.112-.16 1.542-.734 1.967-.43.317-1.478.383-1.791.111-.328-.284-.475-.815-.475-1.717 0-1.358.613-2.113 1.719-2.113zm5.326 0h.002c.259-.004.536.078.867.244.343.172.728.45.856.617.305.398.306 1.294.005 2.291-.455 1.506-1.36 2.113-2.605 1.743-.48-.143-1.045-.818-1.147-1.372-.164-.894.569-2.788 1.258-3.252.263-.176.505-.266.764-.271zm-8.77 6c-.42-.003-.867.137-1.296.422-.527.349-1.554 1.561-1.827 2.158-.516 1.13.341 2.874 1.627 3.31.453.154.46.153.87-.044.486-.235.725-.55 1.57-2.078.57-1.032.722-1.419.763-1.944.047-.594.016-.699-.314-1.125A1.74 1.74 0 0 0 9.275 18zm4.16 3c-.97 0-1.66.61-2.109 1.861-.39 1.085-.433 2.006-.111 2.328.56.562 2.64 1.016 3.273.715.265-.125.347-.312.473-1.074.12-.73-.047-2.358-.307-2.986-.231-.56-.64-.844-1.218-.844zm4.555 0c-.087 0-.188.005-.308.014-.72.055-1.108.3-1.455.916-.232.41-.253.561-.206 1.394.06 1.04.22 1.571.5 1.649.302.083 1.656-.04 2.25-.203.732-.202 1.229-.6 1.229-.979 0-.405-1.052-2.327-1.424-2.6A.865.865 0 0 0 17.99 21z"/><path style="fill:#f4f4f7;opacity:.2" d="M13.486 8a5.063 5.063 0 0 0-.478.018c-1.325.117-3.053 1.297-4.518 3.087-1.187 1.451-1.658 2.654-1.426 3.606.153-.756.621-1.622 1.426-2.606 1.465-1.79 3.193-2.97 4.518-3.087.14-.013.302-.02.478-.018 1.238.009 3.243.34 4.43.752 2.165.753 3.422 1.51 3.813 2.295.087.176.29 1.084.45 2.017.162.933.426 2.179.589 2.768.082.3.136.56.175.805.105-.467.038-1.03-.175-1.805-.163-.59-.427-1.835-.588-2.768-.161-.933-.364-1.84-.451-2.017-.391-.786-1.648-1.542-3.813-2.295-1.187-.413-3.192-.743-4.43-.752zm6.467 6.346a5.452 5.452 0 0 1-.178.806c-.455 1.506-1.36 2.113-2.605 1.743-.444-.132-.947-.72-1.102-1.247-.064.331-.088.64-.045.875.102.554.668 1.23 1.147 1.372 1.245.37 2.15-.237 2.605-1.743.212-.701.266-1.343.178-1.806zm-5.982.052c-.066.65-.26.991-.705 1.32-.43.318-1.478.384-1.791.112-.25-.217-.395-.58-.45-1.14a3.85 3.85 0 0 0-.025.423c0 .902.147 1.433.475 1.717.313.272 1.362.206 1.79-.111.575-.425.735-.855.735-1.967 0-.116-.018-.235-.03-.354zM9.018 18.02a2.445 2.445 0 0 0-1.04.402c-.526.349-1.553 1.561-1.826 2.158-.173.38-.18.828-.08 1.274.024-.093.041-.188.08-.274.273-.597 1.3-1.81 1.827-2.158.429-.285.876-.425 1.296-.422a1.74 1.74 0 0 1 1.393.7c.141.181.22.305.27.433.02-.102.036-.202.044-.309.047-.594.016-.699-.314-1.125-.012-.015-.027-.024-.04-.039a5.443 5.443 0 0 0-.792-.297 4.261 4.261 0 0 1-.818-.343zM13.436 21c-.971 0-1.66.61-2.11 1.861-.306.854-.395 1.6-.264 2.04.051-.32.129-.662.264-1.04.45-1.251 1.139-1.861 2.11-1.861.577 0 .987.283 1.218.844.158.38.27 1.121.317 1.814.08-.782-.073-2.225-.317-2.814-.231-.56-.64-.844-1.218-.844zm4.554 0c-.087 0-.188.005-.308.014-.72.055-1.108.3-1.455.916-.232.41-.253.561-.206 1.394.003.039.008.065.01.102a1.51 1.51 0 0 1 .196-.496c.347-.617.735-.861 1.455-.916.12-.01.221-.015.308-.014.261.002.4.055.586.191.272.2.903 1.277 1.225 2.002.116-.13.199-.266.199-.402 0-.405-1.052-2.327-1.424-2.6A.865.865 0 0 0 17.99 21z"/></svg>
